!!!COM:	la Rue, Pierre de
!!!CDT:	~1452///-1518/11/20
!!!OTL:	Regina celi
!!!AGN:	Motet
!!!SCT:	Rue2019
!!!SCA:	Rue2019
!!!voices:	4
**kern	**kern	**kern	**kern
*staff4	*staff3	*staff2	*staff1
*Ivox	*Ivox	*Ivox	*Ivox
*I"Bassus	*I"Tenor	*I"Altus	*I"Discantus
*I'B	*I'T	*I'A	*I'D
*>[A,B]	*>[A,B]	*>[A,B]	*>[A,B]
*>A	*>A	*>A	*>A
*clefF4	*clefGv2	*clefGv2	*clefG2
*k[]	*k[b-]	*k[]	*k[]
*M2/1	*M2/1	*M2/1	*M2/1
*met(C|)	*met(C|)	*met(C|)	*met(C|)
!!section: Regina celi
!!!OMD: Regina celi
=1-	=1-	=1-	=1-
0r	0r	1B	0r
.	.	2B\	.
.	.	4c\	.
.	.	4d\	.
=2	=2	=2	=2
1E	0r	1e	0r
2E\	.	4e\	.
.	.	4d\	.
4F\	.	4c\	.
4G\	.	4B\	.
=3	=3	=3	=3
1A	0r	[0A	1e
4A\	.	.	2e/
4G\	.	.	.
4F\	.	.	4f/
4E\	.	.	4g/
=4	=4	=4	=4
0D	0F	0A]	1a
.	.	.	4a/
.	.	.	4g/
.	.	.	4f/
.	.	.	4e/
=5	=5	=5	=5
0r	0G	1B	1d
.	.	[1B	[1e
=6	=6	=6	=6
0r	0F	2B\]	2e/]
.	.	2A/	2d/
.	.	1A	1d
=7	=7	=7	=7
1.E	0G	0B	0e
2AA/	.	.	.
=8	=8	=8	=8
0AA	0A	2r	1r
.	.	1e	.
.	.	.	2r
.	.	2A/	[2a/
=9	=9	=9	=9
2r	0r	1A	2a/]
1D	.	.	2d/
.	.	2r	2.d/
2GG/	.	[2d\	.
.	.	.	8c/L
.	.	.	8d/J
=10	=10	=10	=10
1GG	0r	2d\]	4e/
.	.	.	4d/
.	.	2G/	1g
1D	.	1A	.
.	.	.	2f/
=11	=11	=11	=11
2r	0r	2G/	2g/
1D	.	2d\	2a/
.	.	2.B\	2d/
2GG/	.	.	[2dd\
.	.	4c\	.
=12	=12	=12	=12
0GG	0B-	1d	2dd\]
.	.	.	2g/
.	.	2e\	1g
.	.	[2g\	.
=13	=13	=13	=13
1r	0A	2g\]	1r
.	.	4f#i\	.
.	.	4e\	.
1D	.	1f#i	1a
=14	=14	=14	=14
2GG/	[0G	2.g\	1b
1G	.	.	.
.	.	4f\	.
.	.	2d\	4b\
.	.	.	4a/
2C/	.	[2e\	4g/
.	.	.	4f/
=15	=15	=15	=15
1C	0G]	2e\]	1e
.	.	4d\	.
.	.	4c\	.
2r	.	2B\	2d/
2C/	.	2E/	2g/
=16	=16	=16	=16
2D\	1B-	0r	2f/
2E\	.	.	1e
1F	2A/	.	.
.	2F/	.	2d/
=17	=17	=17	=17
[0E	1G	2r	1e
.	.	2B\	.
.	[1G	2c\	2r
.	.	2B\	2b\
=18	=18	=18	=18
0E_	0G_	1E	2cc\
.	.	.	2.b\
.	.	2r	.
.	.	.	4a/
.	.	2B\	4g/
.	.	.	4f/
=19	=19	=19	=19
0E]	1G]	2c\	1e
.	.	1B	.
.	1G	.	2r
.	.	2e\	2b\
=20	=20	=20	=20
0r	0F	2A/	2cc\
.	.	2.f\	2.dd\
.	.	4e\	4cc\
.	.	4d\	4b\
.	.	4c\	4a/
=21	=21	=21	=21
2E\	0r	4B\	4g/
.	.	4c\	4a/
4D\	.	4d\	4b\
4C/	.	4e\	4cc\
2D\	.	2d\	2b\
2F\	.	2A/	[2a/
=22	=22	=22	=22
1E	0r	1B	2a/]
.	.	.	2g#i/
2AA/	.	2r	2a/
2C/	.	[2e\	2e/
=23	=23	=23	=23
2.D\	0r	2e\]	1f
.	.	2d\	.
4C/	.	.	.
2AA/	.	2.e\	1e
[2E\	.	.	.
.	.	4d\	.
=24	=24	=24	=24
2E\]	0r	2B\	2r
2D\	.	2d\	1b
2E\	.	2c\	.
2F\	.	4B\	2a/
.	.	4A/	.
=25	=25	=25	=25
1G	0r	1G	2b\
.	.	.	2dd\
1A	.	2r	2.cc\
.	.	[2c\	.
.	.	.	8b/L
.	.	.	8a/J
=26	=26	=26	=26
2E\	0r	4c\]	2g/
.	.	4B\	.
2G\	.	2G/	2e/
2F\	.	2A/	2f/
4E\	.	2B\	[2g/
4D\	.	.	.
=27	=27	=27	=27
1C	1r	2E/	4g/]
.	.	.	4f/
.	.	2e\	1e
1D	1F	1f	.
.	.	.	2d/
=28	=28	=28	=28
0AA	[0c	1e	0e
.	.	2r	.
.	.	[2A/	.
=29	=29	=29	=29
2r	0c_	2A/]	1r
2E\	.	2G/	.
2.F\	.	2.A/	2r
.	.	.	[2a/
4E\	.	4E/	.
=30	=30	=30	=30
1C	0c]	1E	2a/]
.	.	.	2g/
2.AA/	.	2r	1a
.	.	[2c\	.
4BB/	.	.	.
=31	=31	=31	=31
[0C	0r	2c\]	1e
.	.	4B\	.
.	.	4A/	.
.	.	2G/	2r
.	.	2A/	[2cc\
=32	=32	=32	=32
0C]	1r	2.E/	2cc\]
.	.	.	4b\
.	.	4F/	4a/
.	1c	[1G	2g/
.	.	.	[2cc\
=33	=33	=33	=33
0GG	[0d	1G]	2cc\]
.	.	.	2b\
.	.	2r	1b
.	.	2G/	.
=34	=34	=34	=34
2r	0d]	2F/	2r
2GG/	.	2G/	2b\
2FF/	.	2r	2a/
[2GG/	.	2G/	[2b\
=35	=35	=35	=35
4GG/]	1d	1G	4b\]
4AA/	.	.	4a/
2BB/	.	.	4g/
.	.	.	4f/
[1C	[1c	1G	1e
=36	=36	=36	=36
1C]	1c]	2.E/	2r
.	.	.	2e/
.	.	4F/	.
[1GG	[1B-	1G	2d/
.	.	.	[2g/
=37	=37	=37	=37
1GG]	1B-]	2r	4g/]
.	.	.	4f/
.	.	1G	4e/
.	.	.	4d/
1AA	1A	.	1c
.	.	2F/	.
=38	=38	=38	=38
1E	1G	2G/	2B/
.	.	1B	1e
1F	1F	.	.
.	.	2A/	2d/
=39	=39	=39	=39
1E	[0G	1B	1e
2E\	.	[1e	2.c/
[2E\	.	.	.
.	.	.	4c/
=40	=40	=40	=40
2E\]	0G]	1e]	1B
4D\	.	.	.
4C/	.	.	.
1BB	.	1d	2r
.	.	.	2b\
=41	=41	=41	=41
0AA	0A	1c	1cc
.	.	1e	1cc
=42	=42	=42	=42
0r	1B-	1d	2.dd\
.	.	.	4cc\
.	1G	2.g\	4b\
.	.	.	4a/
.	.	.	[2b\
.	.	4f\	.
=43	=43	=43	=43
0r	1A	4e\	2b\]
.	.	4d\	.
.	.	1e	1a
.	1B-	.	.
.	.	2d\	2g/
=44	=44	=44	=44
[0AA	0c	0e	0a
=45	=45	=45	=45
0AA]	1A	1c	1r
.	1F	1A	1a
=46	=46	=46	=46
0E	0G	2r	2b\
.	.	1B	1g
.	.	2G/	[2cc\
=47	=47	=47	=47
0F	1F	2A/	4cc\]
.	.	.	4b\
.	.	1c	4a/
.	.	.	4g/
.	1r	.	1a
.	.	2d\	.
=48	=48	=48	=48
1E	0r	1e	2g/
.	.	.	1b
[1D	.	2r	.
.	.	[2f\	[2a/
=49	=49	=49	=49
1D]	0r	2f\]	2a/]
.	.	2d\	2.dd\
1AA	.	1e	.
.	.	.	4cc\
.	.	.	2cc\
=50	=50	=50	=50
1r	0r	1d	2dd\
.	.	.	1b
2r	.	1e	.
[2E\	.	.	4a/
.	.	.	4g/
=51	=51	=51	=51
2E\]	1r	1f	1a
2D\	.	.	.
2E\	2r	1e	1g
[2G\	[2B-\	.	.
=52	=52	=52	=52
4G\]	2B-\]	0r	2r
4F\	.	.	.
4E\	2G/	.	2b\
4D\	.	.	.
2C/	2A/	.	2cc\
2GG/	2B-\	.	[2dd\
=53	=53	=53	=53
1AA	1c	0r	2dd\]
.	.	.	1cc
1GG	1d	.	.
.	.	.	2b\
=54	=54	=54	=54
0AA	2.c\	1e	0cc
.	4B-\	.	.
.	2A/	2c\	.
.	2F/	2A/	.
=55	=55	=55	=55
1GG	1G	1d	1b
2r	1G	1e	2r
2C/	.	.	2e/
=56	=56	=56	=56
2D\	1F	1d	2f/
2F\	.	.	2d/
4E\	2r	2r	2e/
4C/	.	.	.
2D\	[2B-\	[2d\	2f/
=57	=57	=57	=57
2GG/	2B-\]	4d\]	2g/
.	.	4B\	.
2C/	2G/	1c	2e/
2r	2A/	.	2f/
2GG/	2B-\	2d\	2g/
=58	=58	=58	=58
2AA/	1c	2A/	2c/
2C/	.	2G/	2e/
2D\	1F	2d\	2d/
2AA/	.	2c\	2a/
=59	=59	=59	=59
2E\	1G	2B\	2b\
2C/	.	2e\	2cc\
2F\	1Fl	2d\	2.dd\
2D\	.	2f\	.
.	.	.	4cc\
=60	=60	=60	=60
0E	0r	2e\	4b\
.	.	.	4a/
.	.	4d\	1a
.	.	4c\	.
.	.	1B	.
.	.	.	2g#i/
=61	=61	=61	=61
0AAl	0r	0Al	0al
!!LO:LB:i:g=z
=62||	=62||	=62||	=62||
*>B	*>B	*>B	*>B
*clefF4	*clefGv2	*clefGv2	*clefG2
*k[]	*k[b-]	*k[]	*k[]
*M2/1	*M2/1	*M2/1	*M2/1
*met(C|)	*met(C|)	*met(C|)	*met(C|)
!!section: Resurrexit
!!!OMD: Resurrexit
0r	0r	0A	0r
=63	=63	=63	=63
0r	0r	2G/	1r
.	.	1B	.
.	.	.	1e
.	.	2c\	.
=64	=64	=64	=64
0r	0B-	0d	2d/
.	.	.	1f
.	.	.	2g/
=65	=65	=65	=65
0AA	0c	0e	2a/
.	.	.	2b\
.	.	.	1cc
=66	=66	=66	=66
2GG/	[0d	2r	1b
1BB	.	1d	.
.	.	.	1r
2C/	.	4c\	.
.	.	4B\	.
=67	=67	=67	=67
2D\	0d_	4A/	2r
.	.	4B\	.
2GG/	.	1G	1b
1D	.	.	.
.	.	2F#i/	2a/
=68	=68	=68	=68
0GG	0d]	1G	2b\
.	.	.	2.dd\
.	.	2r	.
.	.	.	4cc\
.	.	2G/	2b\
=69	=69	=69	=69
2r	1c	2A/	2a/
2.C/	.	2.G/	2.cc\
.	[1c	.	.
4D\	.	4F/	4b\
2E\	.	2G/	4a/
.	.	.	4g/
=70	=70	=70	=70
2F\	1c]	2A/	2f/
2C/	.	2E/	1e
1D	1Bni	1F	.
.	.	.	2d/
=71	=71	=71	=71
[0AA	[0c	0E	1e
.	.	.	2r
.	.	.	2e/
=72	=72	=72	=72
0AA]	0c]	2r	2f/
.	.	1E	1e
.	.	2A/	4d/
.	.	.	4c/
=73	=73	=73	=73
0r	0r	2B\	2B/
.	.	2.c\	1e
.	.	4B\	.
.	.	[2e\	2g/
=74	=74	=74	=74
0r	0r	2e\]	2f/
.	.	2d\	4e/
.	.	.	4d/
.	.	2e\	2c/
.	.	[2c\	[2e/
=75	=75	=75	=75
0r	0r	4c\]	4e/]
.	.	4A/	4c/
.	.	2B\	2d/
.	.	2.G#i/	1B
.	.	4F#i/	.
=76	=76	=76	=76
0AA	0c	0A	1A
.	.	.	1r
=77	=77	=77	=77
2.C/	1.c	0r	0r
4D\	.	.	.
2E\	.	.	.
[2F\	2B-\	.	.
=78	=78	=78	=78
2F\]	2A/	0r	0r
1E	2G/	.	.
.	1F	.	.
2D\	.	.	.
=79	=79	=79	=79
[0E	[0G	1e	1r
.	.	2.g\	1e
.	.	4f\	.
=80	=80	=80	=80
0E]	0G]	4e\	2.g/
.	.	4d\	.
.	.	2.e\	.
.	.	.	4a/
.	.	.	2b\
.	.	4d\	.
.	.	4c\	[2cc\
.	.	4B\	.
=81	=81	=81	=81
0r	0F	2A/	4cc\]
.	.	.	4b\
.	.	2B\	4a/
.	.	.	4g/
.	.	1c	1a
=82	=82	=82	=82
1G	0r	2B\	1b
.	.	2e\	.
2G\	.	[1g	2r
[2E\	.	.	2e/
=83	=83	=83	=83
2E\]	0r	2g\]	2.g/
4D\	.	4f\	.
4C/	.	4e\	4a/
2BB/	.	2d\	2b\
2AA/	.	4c\	[2cc\
.	.	4B\	.
=84	=84	=84	=84
2.C/	0r	4A/	4cc\]
.	.	4G/	4b\
.	.	1G	4a/
4AA/	.	.	4g/
1AA	.	.	1a
.	.	2F#i/	.
=85	=85	=85	=85
[0GG	[0B-	0G	0d
=86	=86	=86	=86
0GG]	1B-]	1r	1r
.	1G	1B	[1g
=87	=87	=87	=87
1r	0A	1c	2g/]
.	.	.	2f/
1D	.	[1d	1f
=88	=88	=88	=88
2GG/	0B-	2d\]	0g
2.G\	.	2G/	.
.	.	1G	.
4F\	.	.	.
4E\	.	.	.
4D\	.	.	.
=89	=89	=89	=89
2.C/	[0c	1A	2.e/
4D\	.	.	4f/
2E\	.	1E	2g/
2AA/	.	.	[2a/
=90	=90	=90	=90
1AA	0c]	0r	2a/]
.	.	.	2g/
2r	.	.	2e/
[2A\	.	.	[2f/
=91	=91	=91	=91
4A\]	1c	1r	2f/]
4G\	.	.	.
2E\	.	.	2.e/
1F	2A/	1A	.
.	.	.	4d/
.	2F/	.	2d/
=92	=92	=92	=92
1E	[0G	1B	0e
2r	.	2B\	.
[2E\	.	[2G/	.
=93	=93	=93	=93
2E\]	0G_	2G/]	0r
4D\	.	4F/	.
4C/	.	4E/	.
2BB/	.	2D/	.
2C/	.	2E/	.
=94	=94	=94	=94
2BB/	0G]	2D/	0r
2GG/	.	1d	.
2BB/	.	.	.
2C/	.	2G/	.
=95	=95	=95	=95
1AA	0F	2.A/	0cc
.	.	4B\	.
1AA	.	1c	.
=96	=96	=96	=96
0GG	0r	1d	1.b
.	.	2G/	.
.	.	[2d\	4a/
.	.	.	4g/
=97	=97	=97	=97
0r	0r	2d\]	2a/
.	.	1e	1g
.	.	4d\	4f/
.	.	4c\	4e/
=98	=98	=98	=98
0GG	0r	4d\	1d
.	.	4c\	.
.	.	4B\	.
.	.	4A/	.
.	.	1B	2r
.	.	.	[2g/
=99	=99	=99	=99
1.C	[0c	0E	2g/]
.	.	.	1e
2D\	.	.	[2a/
=100	=100	=100	=100
1E	0c]	1r	4a/]
.	.	.	4g/
.	.	.	2g/
1AA	.	1e	[1a
=101	=101	=101	=101
1.D	0F	1.f	2a/]
.	.	.	2d/
.	.	.	1d
2GG/	.	2d\	.
=102	=102	=102	=102
1GG	1G	2e\	2r
.	.	2.d\	1g
1r	1A	.	.
.	.	4c\	.
.	.	2c\	2f/
=103	=103	=103	=103
0GG	1.B-	0d	1.g
.	2A/	.	2f/
=104	=104	=104	=104
1C	1G	1r	1e
1D	1F	1d	1d
=105	=105	=105	=105
[0AA	0E	0e	1c
.	.	.	2r
.	.	.	[2cc\
=106	=106	=106	=106
0AA]	1F	1A	4cc\]
.	.	.	4b\
.	.	.	1a
.	1A	2.c\	.
.	.	.	4g/
.	.	4d\	4f/
=107	=107	=107	=107
2.C/	[0G	1e	2e/
.	.	.	2.g/
4D\	.	.	.
4E\	.	1r	.
4F\	.	.	4f/
[2G\	.	.	4e/
.	.	.	4d/
=108	=108	=108	=108
4G\]	0G]	1r	2e/
4F\	.	.	.
4E\	.	.	1d
4D\	.	.	.
1E	.	1e	.
.	.	.	2c#i/
=109	=109	=109	=109
0D	0F	1.f	0d
.	.	4e\	.
.	.	4d\	.
=110	=110	=110	=110
0F	1r	2c\	0r
.	.	2d\	.
.	1F	2c\	.
.	.	[2f\	.
=111	=111	=111	=111
1C	1A	2f\]	0r
.	.	2.e\	.
1D	1B-	.	.
.	.	4d\	.
.	.	2d\	.
=112	=112	=112	=112
0AA	0c	0e	1a
.	.	.	1a
=113	=113	=113	=113
0r	0d	2r	2b\
.	.	2.f\	2.dd\
.	.	4e\	4cc\
.	.	4d\	4b\
.	.	4c\	4a/
=114	=114	=114	=114
0r	2c\	2d\	4b\
.	.	.	4e/
.	2A/	1e	1a
.	1B-	.	.
.	.	2d\	2g/
=115	=115	=115	=115
1.A	2A/	1e	0a
.	1c	.	.
.	.	1r	.
2F\	2A/	.	.
=116	=116	=116	=116
2G\	2B-\	0r	0r
2.A\	2.c\	.	.
4G\	4B-\	.	.
4F\	4A/	.	.
4E\	4G/	.	.
=117	=117	=117	=117
4D\	2F/	0r	0r
4C/	.	.	.
1F	2A/	.	.
.	1G	.	.
[2E\	.	.	.
=118	=118	=118	=118
2E\]	0F	1r	1a
4D\	.	.	.
4C/	.	.	.
1D	.	1f	1a
=119	=119	=119	=119
[0E	0r	2.e\	2g/
.	.	.	1cc
.	.	4d\	.
.	.	4c\	.
.	.	4B\	.
.	.	[2e\	[2b\
=120	=120	=120	=120
0E]	0r	2e\]	2b\]
.	.	4d\	2.a/
.	.	4c\	.
.	.	1B	.
.	.	.	4f/
.	.	.	2g/
=121	=121	=121	=121
0r	0r	4A/	4c/
.	.	4B\	4d/
.	.	4c\	4e/
.	.	4d\	4f/
.	.	2c\	2e/
.	.	4B\	4d/
.	.	4A/	4c/
=122	=122	=122	=122
0r	0r	2G/	2B/
.	.	2A/	2A/
.	.	4c\	4e/
.	.	4d\	4f/
.	.	4e\	4g/
.	.	4f\	4a/
=123	=123	=123	=123
0r	0r	2e\	2g/
.	.	4d\	4f/
.	.	4c\	4e/
.	.	2B\	2d/
.	.	2E/	2c/
=124	=124	=124	=124
4E\	0r	0e	4g/
4F\	.	.	4a/
4G\	.	.	4b\
4A\	.	.	4cc\
2G\	.	.	2b\
4F\	.	.	2g/
4E\	.	.	.
=125	=125	=125	=125
1D	1F	1.f	1a
2r	1B-	.	1r
[2G\	.	2e\	.
=126	=126	=126	=126
2G\]	1A	[0d	2r
2F#i\	.	.	2a/
1G	[1G	.	2b\
.	.	.	[2g/
=127	=127	=127	=127
1r	2G/]	0d]	2g/]
.	2A/	.	2f/
1G	1B-	.	2.g/
.	.	.	4f/
=128	=128	=128	=128
1.A	0c	0r	2e/
.	.	.	1f
2G\	.	.	[2e/
=129	=129	=129	=129
1F	2A/	1A	2e/]
.	2F/	.	2d/
1E	1G	1B	1e
=130	=130	=130	=130
2r	0F	2A/	2r
2F\	.	2.d\	2a/
2D\	.	.	2f/
.	.	4c\	.
2F\	.	2A/	2a/
=131	=131	=131	=131
2E\	0r	2B\	2g/
2C/	.	2.e\	2e/
2E\	.	.	2g/
.	.	4d\	.
2F\	.	2c\	2f/
=132	=132	=132	=132
2G\	1r	2B\	2d/
2F\	.	2A/	2a/
1D	1F	1d	2f/
.	.	.	2a/
=133	=133	=133	=133
1G	1B-	1G	2g/
.	.	.	1e
1F	1A	1A	.
.	.	.	2d/
=134	=134	=134	=134
*M3/1	*M3/1	*M3/1	*M3/1
*met(3)	*met(3)	*met(3)	*met(3)
0E	1.G	1.B	1.e
.	2A/	2c\	2f/
1r	1B-	1d	1g
=135	=135	=135	=135
1.AA	0.c	0.e	1.a
2BB/	.	.	2g/
1C	.	.	1e
=136	=136	=136	=136
0D	1A	0d	0f
.	1F	.	.
1E	[1G	1B	1e
=137	=137	=137	=137
1C	1G]	1c	0e
0D	0Fl	1.A	.
.	.	.	1d
.	.	2B\	.
=138	=138	=138	=138
0G	0.r	[0.Bl	[0.el
1E	.	.	.
=139	=139	=139	=139
0.El	0.r	0.B]	0.e]
==	==	==	==
*-	*-	*-	*-
!!!RDF**kern: l=long note in original notation
!!!RDF**kern: i=editorial accidental
!!!RDF**kern: V=start of tuplet marker
!!!RDF**kern: Z=end of tuplet marker
!!!ENC:	Jesse Rodin; Chris Gage 01-02-2013
!!!END:	2013/07/16/
!!!EED:	Jesse Rodin
!!!EEV:	2013/07/20/
!!!ONB:	Translated from MusicXML and edited on 2013/07/20/ by Craig Sapp
!!muse2ps: C^@{COM}^i2I150v85,85,85,150Q16
